X:28
T:Harly Bush Fair. ThoH.028
Q:1/2=90
M:3/2
L:1/8
B:Thompson's Compleat Collection of 120 Favourite Hornpipes.
Z:Village Music Project, Simon Wilson 2016
O:England.
K:Eb
e4(BA)(GF)E4|(eg)(bg) (eg)(fd)e4|(EFGA)B2c2d2e2|(fgag) (fedc)B4|
e4(BA)(GF)E4|(eg)(bg) (egfd)e4|(fdBd) (fagf) (gd)(ec)|(BDEA)G2F2E4:|
|:f4(Bcde) (fgaf)|(gfed)c2(af)g4|(c=Bcd)e2f2g2a2|(g=Bcf) (edcB)c4|
(egfe) (dcBA) (GABc)|(defg) (acde)d4|(Bdce) (dfed)e2c2|(BDEA)G2F2E4:|

